app/client/src/widgets/wds/WDSButtonWidget/thumbnail.svg

<svg width="72" height="76" viewBox="0 0 72 76" fill="none" xmlns="http://www.w3.org/2000/svg">
<rect x="8.5" y="26.5" width="55" height="23" rx="3.5" fill="#FFEEE5"/>
<rect x="8.5" y="26.5" width="55" height="23" rx="3.5" stroke="#CC3D00"/>
<path d="M37.5 33.5V37.5M37.5 41.5V37.5M43.5 33.5L40.0858 36.9142C39.7107 37.2893 39.202 37.5 38.6716 37.5H37.5" stroke="#CC3D00" stroke-linecap="round" stroke-linejoin="round"/>
<path d="M37.5 41.5V37.5V33.5M43.5 41.5L39.5 37.5" stroke="#CC3D00" stroke-linecap="round" stroke-linejoin="round"/>
<path d="M28.5 38.5V36.5C28.5 34.8431 29.8431 33.5 31.5 33.5C33.1569 33.5 34.5 34.8431 34.5 36.5V38.5C34.5 40.1569 33.1569 41.5 31.5 41.5C29.8431 41.5 28.5 40.1569 28.5 38.5Z" stroke="#CC3D00" stroke-linecap="round" stroke-linejoin="round"/>
</svg>

<svg xmlns="http://www.w3.org/2000/svg" width="72" height="76" fill="none"><rect width="55" height="23" x="8.5" y="26.5" fill="#FFEEE5" rx="3.5"/><rect width="55" height="23" x="8.5" y="26.5" stroke="#CC3D00" rx="3.5"/><path stroke="#CC3D00" stroke-linecap="round" stroke-linejoin="round" d="M37.5 33.5v4m0 4v-4m6-4-3.414 3.414a2 2 0 0 1-1.414.586H37.5M37.5 41.5v-8m6 8-4-4M28.5 38.5v-2a3 3 0 1 1 6 0v2a3 3 0 1 1-6 0Z"/></svg>
